X:1
T: Jack is yet Alive
C:
R:Reel
Q: 232
K:G
M:4/4
L:1/8
|:GE|DE GB A2 Ac|Bd BG AG EG|DE GB A2 Ac|BG AF G3A|
DE GB A2 Ac|Bd BG AG EG|DE GB A2 Ac|BG AF G3g|
g2 ge f2 fd|ef ge ag fd|g2 ge f2 fd|ef ag f2 df|
g2 ge f2 fd|e2 ef ed B2|g2 fg e2 dc|BG AF G2:|
